X: 652
M: 9/8
L: 1/8
K: Bb
V: 1
(D/E/F)D BFE TD2B, | (D/E/F)D ECC C2F |\
(D/E/F)D Bcd TD2B, | (D/E/F)C DB,B, B,2 :|
|: F |\
V: 2 clef=bass middle=d
   z | B3 B3 B3 | B3 c3 c3 | B3 B3 B3 | f3 F3 B2 :|\
|: z | b3 b3 b3 | f3 f3 f3 | B3 B3 B3 | f3 F3 B2 :|

